X: 2197
T: MAID OF ISLAY
R: Strathspey
B: Kerr's v.2 p.22 #197
O: Gow 1806
B: The Athole Collection
Z: 2016 John Chambers <jc:trillian.mit.edu>
M: C
L: 1/8
K: F
|:\
F<Fc>A c<dc>A | F<Fc>A d>cA2 |\
F<Fc>A c>dc<A | d>ef>d (c<A)G2 ::\
f>gf<d c>dc<A |
f>gf<d c<"^or"[ad]A>c |\
[1 f>gf<d c>dc<A | d>ef>d (c<A)G2 :|\
[2 f<ad>f c>df>g | (a/g/)f/e/ f>d c<d A>c |]
